; generated by Slic3r 1.2.9 on 2017-03-17 at 19:01:29

; external perimeters extrusion width = 0.80mm
; perimeters extrusion width = 1.34mm
; infill extrusion width = 1.34mm
; solid infill extrusion width = 1.34mm
; top infill extrusion width = 1.34mm

M107
M104 S245 ; set temperature
G28 ; home all axes
G1 Z5 F5000 ; lift nozzle

M109 S245 ; wait for temperature to be reached
G21 ; set units to millimeters
G90 ; use absolute coordinates
M82 ; use absolute distances for extrusion
G92 E0
G1 Z0.500 F7800.000
G1 E-2.00000 F2400.00000
G92 E0
G1 X20.016 Y26.291 F7800.000
G1 E2.00000 F2400.00000
G1 X20.525 Y25.954 E2.10820 F1800.000
G1 X21.085 Y25.710 E2.21645
G1 X21.678 Y25.566 E2.32471
G1 X22.200 Y25.525 E2.41751
G1 X62.287 Y25.528 E9.52440
G1 X62.894 Y25.597 E9.63266 F1800.000
G1 X63.480 Y25.770 E9.74093
G1 X64.027 Y26.041 E9.84918
G1 X64.522 Y26.408 E9.95837
G1 X64.939 Y26.846 E10.06565
G1 X65.189 Y27.203 E10.14290
G1 X65.460 Y27.750 E10.25114
G1 X65.633 Y28.336 E10.35938
G1 X65.701 Y28.942 E10.46762
G1 X65.705 Y69.030 E17.57457
G1 X65.633 Y69.724 E17.69831
G1 X65.460 Y70.310 E17.80657
G1 X65.189 Y70.857 E17.91481
G1 X64.826 Y71.348 E18.02304
G1 X64.379 Y71.772 E18.13224
G1 X63.875 Y72.106 E18.23946
G1 X63.480 Y72.290 E18.31677
G1 X62.894 Y72.463 E18.42502
G1 X62.200 Y72.535 E18.54877
G1 X22.200 Y72.535 E25.64018
G1 X21.506 Y72.463 E25.76389
G1 X20.920 Y72.290 E25.87219
G1 X20.373 Y72.019 E25.98041
G1 X20.016 Y71.769 E26.05767
G1 X19.574 Y71.348 E26.16592
G1 X19.211 Y70.857 E26.27416
G1 X18.940 Y70.310 E26.38239
G1 X18.767 Y69.724 E26.49064
G1 X18.695 Y69.030 E26.61439
G1 X18.695 Y29.030 E33.70581
G1 X18.767 Y28.336 E33.82952
G1 X18.940 Y27.750 E33.93778
G1 X19.124 Y27.355 E34.01507
G1 X19.461 Y26.846 E34.12329
G1 X19.574 Y26.712 E34.15436
G1 X19.924 Y26.369 E34.24139
G1 E32.24139 F2400.00000
G92 E0
G1 X19.952 Y29.008 F7800.000
G1 E2.00000 F2400.00000
G1 X19.985 Y28.639 E2.06566 F1800.000
G1 X20.095 Y28.241 E2.13899
G1 X20.264 Y27.887 E2.20847
G1 X20.477 Y27.584 E2.27413
G1 X20.738 Y27.322 E2.33979
G1 X21.075 Y27.082 E2.41312
G1 X21.431 Y26.916 E2.48264
G1 X21.809 Y26.815 E2.55215
G1 X22.211 Y26.780 E2.62361
G1 X62.195 Y26.780 E9.71211
G1 X62.591 Y26.815 E9.78260
G1 X62.969 Y26.916 E9.85212
G1 X63.325 Y27.082 E9.92164
G1 X63.646 Y27.307 E9.99115
G1 X63.936 Y27.602 E10.06448
G1 X64.148 Y27.905 E10.13015
G1 X64.305 Y28.241 E10.19581
G1 X64.415 Y28.639 E10.26914
G1 X64.450 Y29.041 E10.34059
G1 X64.450 Y69.019 E17.42813
G1 X64.415 Y69.421 E17.49959
G1 X64.314 Y69.799 E17.56910
G1 X64.148 Y70.155 E17.63862
G1 X63.923 Y70.476 E17.70809
G1 X63.628 Y70.766 E17.78146
G1 X63.325 Y70.978 E17.84713
G1 X62.989 Y71.135 E17.91279
G1 X62.591 Y71.245 E17.98612
G1 X62.189 Y71.280 E18.05757
G1 X22.211 Y71.280 E25.14511
G1 X21.809 Y71.245 E25.21657
G1 X21.431 Y71.144 E25.28608
G1 X21.075 Y70.978 E25.35560
G1 X20.754 Y70.753 E25.42511
G1 X20.464 Y70.458 E25.49844
G1 X20.252 Y70.155 E25.56411
G1 X20.095 Y69.819 E25.62977
G1 X19.985 Y69.421 E25.70310
G1 X19.950 Y69.019 E25.77455
G1 X19.952 Y29.008 E32.86788
M104 S250 ; set temperature
G1 Z0.900 F7800.000
G1 X19.985 Y28.639 E32.93354 F900.000
G1 X20.095 Y28.241 E33.00687
G1 X20.264 Y27.887 E33.07635
G1 X20.477 Y27.584 E33.14201
G1 X20.730 Y27.330 E33.20550
G1 X21.075 Y27.082 E33.28097
G1 X21.431 Y26.916 E33.35049
G1 X21.809 Y26.815 E33.42000
G1 X22.211 Y26.780 E33.49146
G1 X62.204 Y26.781 E40.58170
G1 X62.591 Y26.815 E40.65045
G1 X62.969 Y26.916 E40.71997
G1 X63.325 Y27.082 E40.78948
G1 X63.646 Y27.307 E40.85900
G1 X63.936 Y27.602 E40.93233
G1 X64.148 Y27.905 E40.99799
G1 X64.305 Y28.241 E41.06366
G1 X64.415 Y28.639 E41.13699
G1 X64.450 Y29.041 E41.20844
G1 X64.450 Y69.019 E48.29598
G1 X64.415 Y69.421 E48.36743
G1 X64.314 Y69.799 E48.43695
G1 X64.148 Y70.155 E48.50647
G1 X63.923 Y70.476 E48.57598
G1 X63.628 Y70.766 E48.64931
G1 X63.325 Y70.978 E48.71498
G1 X62.989 Y71.135 E48.78064
G1 X62.591 Y71.245 E48.85397
G1 X62.189 Y71.280 E48.92542
G1 X22.211 Y71.280 E56.01296
G1 X21.809 Y71.245 E56.08442
G1 X21.431 Y71.144 E56.15393
G1 X21.075 Y70.978 E56.22345
G1 X20.754 Y70.753 E56.29296
G1 X20.464 Y70.458 E56.36629
G1 X20.252 Y70.155 E56.43196
G1 X20.095 Y69.819 E56.49762
G1 X19.985 Y69.421 E56.57095
G1 X19.950 Y69.019 E56.64240
G1 X19.952 Y29.008 E63.73573
G1 Z1.300 F7800.000
G1 X19.985 Y28.639 E63.80139 F900.000
G1 X20.095 Y28.241 E63.87472
G1 X20.264 Y27.887 E63.94420
G1 X20.477 Y27.584 E64.00986
G1 X20.738 Y27.322 E64.07552
G1 X21.075 Y27.082 E64.14885
G1 X21.431 Y26.916 E64.21837
G1 X21.809 Y26.815 E64.28788
G1 X22.211 Y26.780 E64.35933
G1 X62.200 Y26.781 E71.44881
G1 X62.591 Y26.815 E71.51832
G1 X62.969 Y26.916 E71.58784
G1 X63.324 Y27.083 E71.65734
G1 X63.646 Y27.307 E71.72683
G1 X63.936 Y27.602 E71.80016
G1 X64.148 Y27.905 E71.86583
G1 X64.305 Y28.241 E71.93149
G1 X64.415 Y28.639 E72.00482
G1 X64.450 Y29.041 E72.07627
G1 X64.450 Y69.019 E79.16382
G1 X64.415 Y69.421 E79.23527
G1 X64.314 Y69.799 E79.30478
G1 X64.148 Y70.155 E79.37430
G1 X63.923 Y70.476 E79.44381
G1 X63.628 Y70.766 E79.51714
G1 X63.325 Y70.978 E79.58281
G1 X62.989 Y71.135 E79.64847
G1 X62.591 Y71.245 E79.72180
G1 X62.189 Y71.280 E79.79325
G1 X22.211 Y71.280 E86.88080
G1 X21.809 Y71.245 E86.95225
G1 X21.431 Y71.144 E87.02177
G1 X21.076 Y70.977 E87.09126
G1 X20.754 Y70.753 E87.16076
G1 X20.464 Y70.458 E87.23409
G1 X20.252 Y70.155 E87.29975
G1 X20.095 Y69.819 E87.36542
G1 X19.985 Y69.421 E87.43875
G1 X19.950 Y69.019 E87.51020
G1 X19.952 Y29.008 E94.60352
M106 S234.6
G1 Z1.700 F7800.000
G1 X19.952 Y29.008 F7800.000
G1 X19.985 Y28.639 E94.66919 F900.000
G1 X20.095 Y28.241 E94.74252
G1 X20.264 Y27.887 E94.81199
G1 X20.477 Y27.584 E94.87765
G1 X20.738 Y27.322 E94.94331
G1 X21.075 Y27.082 E95.01665
G1 X21.430 Y26.916 E95.08617
G1 X21.809 Y26.815 E95.15569
G1 X22.211 Y26.780 E95.22714
G1 X62.200 Y26.781 E102.31663
G1 X62.591 Y26.815 E102.38613
G1 X62.969 Y26.916 E102.45564
G1 X63.325 Y27.082 E102.52516
G1 X63.646 Y27.307 E102.59468
G1 X63.936 Y27.602 E102.66800
G1 X64.148 Y27.905 E102.73367
G1 X64.305 Y28.241 E102.79933
G1 X64.415 Y28.639 E102.87266
G1 X64.450 Y29.041 E102.94411
G1 X64.450 Y69.019 E110.03166
G1 X64.415 Y69.421 E110.10311
G1 X64.314 Y69.799 E110.17263
G1 X64.148 Y70.155 E110.24214
G1 X63.923 Y70.476 E110.31166
G1 X63.628 Y70.766 E110.38499
G1 X63.325 Y70.978 E110.45065
G1 X62.989 Y71.135 E110.51631
G1 X62.591 Y71.245 E110.58964
G1 X62.189 Y71.280 E110.66110
G1 X22.211 Y71.280 E117.74864
G1 X21.809 Y71.245 E117.82009
G1 X21.431 Y71.144 E117.88961
G1 X21.075 Y70.978 E117.95912
G1 X20.754 Y70.753 E118.02864
G1 X20.464 Y70.458 E118.10197
G1 X20.252 Y70.155 E118.16763
G1 X20.095 Y69.819 E118.23330
G1 X19.985 Y69.421 E118.30662
G1 X19.950 Y69.019 E118.37808
G1 X19.952 Y29.008 E125.47140
G1 Z2.100 F7800.000
G1 X19.985 Y28.639 E125.53707 F900.000
G1 X20.095 Y28.241 E125.61039
G1 X20.264 Y27.887 E125.67987
G1 X20.477 Y27.584 E125.74553
G1 X20.715 Y27.345 E125.80532
G1 X21.075 Y27.082 E125.88445
G1 X21.431 Y26.916 E125.95397
G1 X21.809 Y26.815 E126.02348
G1 X22.211 Y26.780 E126.09493
G1 X62.200 Y26.782 E133.18441
G1 X62.591 Y26.815 E133.25391
G1 X62.969 Y26.916 E133.32343
G1 X63.325 Y27.082 E133.39294
G1 X63.646 Y27.307 E133.46246
G1 X63.936 Y27.602 E133.53579
G1 X64.148 Y27.905 E133.60145
G1 X64.305 Y28.241 E133.66712
G1 X64.415 Y28.639 E133.74044
G1 X64.450 Y29.041 E133.81190
G1 X64.450 Y69.019 E140.89944
G1 X64.415 Y69.421 E140.97089
G1 X64.314 Y69.799 E141.04041
G1 X64.148 Y70.155 E141.10993
G1 X63.923 Y70.476 E141.17944
G1 X63.628 Y70.766 E141.25277
G1 X63.325 Y70.978 E141.31843
G1 X62.989 Y71.135 E141.38410
G1 X62.591 Y71.245 E141.45743
G1 X62.189 Y71.280 E141.52888
G1 X22.211 Y71.280 E148.61642
G1 X21.809 Y71.245 E148.68787
G1 X21.431 Y71.144 E148.75739
G1 X21.075 Y70.978 E148.82691
G1 X20.754 Y70.753 E148.89642
G1 X20.464 Y70.458 E148.96975
G1 X20.252 Y70.155 E149.03542
G1 X20.095 Y69.819 E149.10108
G1 X19.985 Y69.421 E149.17441
G1 X19.950 Y69.019 E149.24586
G1 X19.952 Y29.008 E156.33919
G1 Z2.500 F7800.000
G1 X19.985 Y28.639 E156.40485 F900.000
G1 X20.095 Y28.241 E156.47818
G1 X20.264 Y27.887 E156.54766
G1 X20.477 Y27.584 E156.61331
G1 X20.710 Y27.350 E156.67187
G1 X21.075 Y27.082 E156.75222
G1 X21.431 Y26.916 E156.82173
G1 X21.809 Y26.815 E156.89125
G1 X22.211 Y26.780 E156.96270
G1 X62.200 Y26.782 E164.05218
G1 X62.591 Y26.815 E164.12167
G1 X62.969 Y26.916 E164.19119
G1 X63.325 Y27.082 E164.26071
G1 X63.646 Y27.307 E164.33022
G1 X63.936 Y27.602 E164.40355
G1 X64.148 Y27.905 E164.46922
G1 X64.305 Y28.241 E164.53488
G1 X64.415 Y28.639 E164.60821
G1 X64.450 Y29.041 E164.67966
G1 X64.450 Y69.019 E171.76720
G1 X64.415 Y69.421 E171.83866
G1 X64.314 Y69.799 E171.90817
G1 X64.146 Y70.153 E171.97765
G1 X63.925 Y70.474 E172.04672
G1 X63.607 Y70.781 E172.12501
G1 X63.325 Y70.978 E172.18605
G1 X62.989 Y71.135 E172.25171
G1 X62.591 Y71.245 E172.32504
G1 X62.189 Y71.280 E172.39649
G1 X22.211 Y71.280 E179.48404
G1 X21.809 Y71.245 E179.55549
G1 X21.431 Y71.144 E179.62501
G1 X21.075 Y70.978 E179.69452
G1 X20.754 Y70.753 E179.76404
G1 X20.464 Y70.458 E179.83737
G1 X20.252 Y70.155 E179.90303
G1 X20.095 Y69.819 E179.96869
G1 X19.985 Y69.421 E180.04202
G1 X19.950 Y69.019 E180.11347
G1 X19.952 Y29.008 E187.20680
G1 Z2.900 F7800.000
G1 X19.985 Y28.639 E187.27246 F900.000
G1 X20.095 Y28.241 E187.34579
G1 X20.264 Y27.887 E187.41527
G1 X20.477 Y27.584 E187.48093
G1 X20.705 Y27.355 E187.53825
G1 X21.075 Y27.082 E187.61982
G1 X21.431 Y26.916 E187.68934
G1 X21.809 Y26.815 E187.75885
G1 X22.211 Y26.780 E187.83030
G1 X62.200 Y26.783 E194.91978
G1 X62.591 Y26.815 E194.98927
G1 X62.969 Y26.916 E195.05879
G1 X63.325 Y27.082 E195.12830
G1 X63.646 Y27.307 E195.19782
G1 X63.936 Y27.602 E195.27115
G1 X64.148 Y27.905 E195.33681
G1 X64.305 Y28.241 E195.40247
G1 X64.415 Y28.639 E195.47580
G1 X64.450 Y29.041 E195.54726
G1 X64.450 Y69.019 E202.63480
G1 X64.415 Y69.421 E202.70625
G1 X64.314 Y69.799 E202.77577
G1 X64.148 Y70.155 E202.84528
G1 X63.923 Y70.476 E202.91480
G1 X63.628 Y70.766 E202.98813
G1 X63.325 Y70.978 E203.05379
G1 X62.989 Y71.135 E203.11945
G1 X62.591 Y71.245 E203.19278
G1 X62.189 Y71.280 E203.26424
G1 X22.211 Y71.280 E210.35178
G1 X21.809 Y71.245 E210.42323
G1 X21.431 Y71.144 E210.49275
G1 X21.075 Y70.978 E210.56227
G1 X20.754 Y70.753 E210.63178
G1 X20.464 Y70.458 E210.70511
G1 X20.252 Y70.155 E210.77077
G1 X20.095 Y69.819 E210.83644
G1 X19.985 Y69.421 E210.90977
G1 X19.950 Y69.019 E210.98122
G1 X19.952 Y29.008 E218.07454
G1 Z3.300 F7800.000
G1 X19.985 Y28.639 E218.14021 F900.000
G1 X20.095 Y28.241 E218.21354
G1 X20.264 Y27.887 E218.28301
G1 X20.477 Y27.584 E218.34867
G1 X20.700 Y27.360 E218.40475
G1 X21.075 Y27.082 E218.48755
G1 X21.431 Y26.916 E218.55706
G1 X21.809 Y26.815 E218.62658
G1 X22.211 Y26.780 E218.69803
G1 X62.200 Y26.783 E225.78751
G1 X62.591 Y26.815 E225.85699
G1 X62.969 Y26.916 E225.92651
G1 X63.325 Y27.082 E225.99603
G1 X63.646 Y27.307 E226.06554
G1 X63.936 Y27.602 E226.13887
G1 X64.148 Y27.905 E226.20454
G1 X64.305 Y28.241 E226.27020
G1 X64.415 Y28.639 E226.34353
G1 X64.450 Y29.041 E226.41498
G1 X64.450 Y69.019 E233.50252
G1 X64.415 Y69.421 E233.57398
G1 X64.314 Y69.799 E233.64349
G1 X64.148 Y70.155 E233.71301
G1 X63.923 Y70.476 E233.78252
G1 X63.628 Y70.766 E233.85585
G1 X63.325 Y70.978 E233.92152
G1 X62.989 Y71.135 E233.98718
G1 X62.591 Y71.245 E234.06051
G1 X62.189 Y71.280 E234.13196
G1 X22.211 Y71.280 E241.21950
G1 X21.809 Y71.245 E241.29096
G1 X21.431 Y71.144 E241.36047
G1 X21.075 Y70.978 E241.42999
G1 X20.754 Y70.753 E241.49951
G1 X20.464 Y70.458 E241.57283
G1 X20.252 Y70.155 E241.63850
G1 X20.095 Y69.819 E241.70416
G1 X19.985 Y69.421 E241.77749
G1 X19.950 Y69.019 E241.84894
G1 X19.952 Y29.008 E248.94227
G1 Z3.700 F7800.000
G1 X19.985 Y28.639 E249.00793 F900.000
G1 X20.095 Y28.241 E249.08126
G1 X20.264 Y27.887 E249.15074
G1 X20.477 Y27.584 E249.21640
G1 X20.695 Y27.365 E249.27124
G1 X21.075 Y27.082 E249.35526
G1 X21.430 Y26.916 E249.42478
G1 X21.809 Y26.815 E249.49431
G1 X22.211 Y26.780 E249.56576
G1 X62.200 Y26.783 E256.65524
G1 X62.591 Y26.815 E256.72471
G1 X62.969 Y26.916 E256.79423
G1 X63.325 Y27.082 E256.86375
G1 X63.646 Y27.307 E256.93326
G1 X63.936 Y27.602 E257.00659
G1 X64.148 Y27.905 E257.07226
G1 X64.305 Y28.241 E257.13792
G1 X64.415 Y28.639 E257.21125
G1 X64.450 Y29.041 E257.28270
G1 X64.450 Y69.019 E264.37024
G1 X64.415 Y69.421 E264.44170
G1 X64.314 Y69.799 E264.51121
G1 X64.148 Y70.155 E264.58073
G1 X63.923 Y70.476 E264.65024
G1 X63.628 Y70.766 E264.72357
G1 X63.325 Y70.978 E264.78924
G1 X62.989 Y71.135 E264.85490
G1 X62.591 Y71.245 E264.92823
G1 X62.189 Y71.280 E264.99968
G1 X22.211 Y71.280 E272.08722
G1 X21.809 Y71.245 E272.15868
G1 X21.431 Y71.144 E272.22819
G1 X21.075 Y70.978 E272.29771
G1 X20.754 Y70.753 E272.36723
G1 X20.464 Y70.458 E272.44055
G1 X20.252 Y70.155 E272.50622
G1 X20.095 Y69.819 E272.57188
G1 X19.985 Y69.421 E272.64521
G1 X19.950 Y69.019 E272.71666
G1 X19.952 Y29.008 E279.80999
G1 Z4.100 F7800.000
G1 X19.952 Y29.008 F7800.000
G1 X19.985 Y28.639 E279.87565 F900.000
G1 X20.095 Y28.241 E279.94898
G1 X20.264 Y27.887 E280.01846
G1 X20.477 Y27.584 E280.08412
G1 X20.690 Y27.370 E280.13773
G1 X21.075 Y27.082 E280.22297
G1 X21.431 Y26.916 E280.29248
G1 X21.809 Y26.815 E280.36200
G1 X22.211 Y26.780 E280.43345
G1 X62.200 Y26.784 E287.52293
G1 X62.591 Y26.815 E287.59240
G1 X62.969 Y26.916 E287.66192
G1 X63.325 Y27.082 E287.73143
G1 X63.646 Y27.307 E287.80095
G1 X63.936 Y27.602 E287.87428
G1 X64.148 Y27.905 E287.93994
G1 X64.305 Y28.241 E288.00561
G1 X64.415 Y28.639 E288.07893
G1 X64.450 Y29.041 E288.15039
G1 X64.450 Y69.019 E295.23793
G1 X64.415 Y69.421 E295.30938
G1 X64.314 Y69.799 E295.37890
G1 X64.148 Y70.155 E295.44842
G1 X63.923 Y70.476 E295.51793
G1 X63.628 Y70.766 E295.59126
G1 X63.325 Y70.978 E295.65693
G1 X62.989 Y71.135 E295.72259
G1 X62.591 Y71.245 E295.79592
G1 X62.189 Y71.280 E295.86737
G1 X22.211 Y71.280 E302.95491
G1 X21.809 Y71.245 E303.02636
G1 X21.431 Y71.144 E303.09588
G1 X21.075 Y70.978 E303.16540
G1 X20.754 Y70.753 E303.23491
G1 X20.464 Y70.458 E303.30824
G1 X20.252 Y70.155 E303.37391
G1 X20.095 Y69.819 E303.43957
G1 X19.985 Y69.421 E303.51290
G1 X19.950 Y69.019 E303.58435
G1 X19.952 Y29.008 E310.67768
G1 Z4.500 F7800.000
G1 X19.952 Y29.008 F7800.000
G1 X19.985 Y28.639 E310.74334 F900.000
G1 X20.095 Y28.241 E310.81667
G1 X20.264 Y27.887 E310.88615
G1 X20.477 Y27.584 E310.95181
G1 X20.685 Y27.375 E311.00418
G1 X21.075 Y27.082 E311.09064
G1 X21.431 Y26.916 E311.16016
G1 X21.809 Y26.815 E311.22968
G1 X22.211 Y26.780 E311.30112
G1 X62.200 Y26.784 E318.39061
G1 X62.591 Y26.815 E318.46007
G1 X62.969 Y26.916 E318.52959
G1 X63.325 Y27.082 E318.59911
G1 X63.646 Y27.307 E318.66862
G1 X63.936 Y27.602 E318.74195
G1 X64.148 Y27.905 E318.80761
G1 X64.305 Y28.241 E318.87328
G1 X64.415 Y28.639 E318.94661
G1 X64.450 Y29.041 E319.01806
G1 X64.450 Y69.019 E326.10560
G1 X64.415 Y69.421 E326.17705
G1 X64.314 Y69.799 E326.24657
G1 X64.148 Y70.155 E326.31609
G1 X63.923 Y70.476 E326.38560
G1 X63.646 Y70.753 E326.45512
G1 X63.285 Y70.999 E326.53258
G1 X62.969 Y71.144 E326.59411
G1 X62.612 Y71.240 E326.65977
G1 X62.189 Y71.280 E326.73504
G1 X22.211 Y71.280 E333.82258
G1 X21.809 Y71.245 E333.89403
G1 X21.431 Y71.144 E333.96355
G1 X21.075 Y70.978 E334.03307
G1 X20.754 Y70.753 E334.10258
G1 X20.464 Y70.458 E334.17591
G1 X20.252 Y70.155 E334.24157
G1 X20.095 Y69.819 E334.30724
G1 X19.985 Y69.421 E334.38057
G1 X19.950 Y69.019 E334.45202
G1 X19.952 Y29.008 E341.54534
G1 Z4.900 F7800.000
G1 X19.952 Y29.008 F7800.000
G1 X19.985 Y28.639 E341.61101 F900.000
G1 X20.095 Y28.241 E341.68434
G1 X20.264 Y27.887 E341.75381
G1 X20.477 Y27.584 E341.81947
G1 X20.680 Y27.380 E341.87061
G1 X21.075 Y27.082 E341.95830
G1 X21.431 Y26.916 E342.02781
G1 X21.809 Y26.815 E342.09733
G1 X22.211 Y26.780 E342.16878
G1 X62.200 Y26.784 E349.25826
G1 X62.591 Y26.815 E349.32772
G1 X62.969 Y26.916 E349.39724
G1 X63.325 Y27.082 E349.46675
G1 X63.646 Y27.307 E349.53627
G1 X63.936 Y27.602 E349.60960
G1 X64.148 Y27.905 E349.67526
G1 X64.305 Y28.241 E349.74093
G1 X64.415 Y28.639 E349.81426
G1 X64.450 Y29.041 E349.88571
