; generated by Slic3r 1.2.9 on 2017-02-02 at 01:33:03

; external perimeters extrusion width = 1.75mm
; perimeters extrusion width = 1.75mm
; infill extrusion width = 1.75mm
; solid infill extrusion width = 1.75mm
; top infill extrusion width = 1.75mm

M107
M104 S250 ; set temperature
G28 ; home all axes
G1 Z5 F5000 ; lift nozzle

M109 S250 ; wait for temperature to be reached
G21 ; set units to millimeters
G90 ; use absolute coordinates
M82 ; use absolute distances for extrusion
G92 E0
G1 Z0.650 F7800.000
G1 E-2.00000 F2400.00000
G92 E0
G1 X30.055 Y39.660 F7800.000
G1 E2.00000 F2400.00000
G1 X32.252 Y38.732 E2.57267 F1800.000
G1 X33.900 Y38.539 E2.97105
G1 X43.900 Y38.539 E5.37216
G1 X46.252 Y38.937 E5.94484
G1 X48.343 Y40.084 E6.51751 F1800.000
G1 X49.940 Y41.855 E7.09018
G1 X50.868 Y44.052 E7.66286
G1 X51.061 Y45.700 E8.06124
G1 X51.061 Y55.700 E10.46235
G1 X50.663 Y58.052 E11.03502
G1 X49.516 Y60.143 E11.60770
G1 X47.745 Y61.740 E12.18037
G1 X45.548 Y62.668 E12.75304
G1 X43.900 Y62.861 E13.15142
G1 X33.900 Y62.861 E15.55253
G1 X31.548 Y62.463 E16.12521
G1 X29.457 Y61.316 E16.69788
G1 X27.860 Y59.545 E17.27055
G1 X26.932 Y57.348 E17.84323
G1 X26.739 Y55.700 E18.24161
G1 X26.739 Y45.700 E20.64272
G1 X27.137 Y43.348 E21.21539
G1 X28.284 Y41.257 E21.78806
G1 X29.966 Y39.740 E22.33193
G1 E20.33193 F2400.00000
G92 E0
G1 X40.929 Y52.729 F7800.000
G1 E2.00000 F2400.00000
G1 X36.871 Y52.729 E2.97436 F1800.000
G1 X36.871 Y48.671 E3.94873
G1 X40.929 Y48.671 E4.92309
G1 X40.929 Y52.609 E5.86864
G1 X42.089 Y53.889 F7800.000
G1 X35.711 Y53.889 E7.40030 F1800.000
G1 X35.711 Y47.511 E8.93196
G1 X42.089 Y47.511 E10.46363
G1 X42.089 Y53.769 E11.96648
G1 X43.250 Y55.050 F7800.000
G1 X34.550 Y55.050 E14.05544 F1800.000
G1 X34.550 Y46.350 E16.14441
G1 X43.250 Y46.350 E18.23337
G1 X43.250 Y54.930 E20.29353
G1 X42.557 Y54.650 F7800.000
G1 X40.209 Y49.924 F7800.000
G1 X39.676 Y49.391 E20.52320 F1800.000
G1 X37.611 Y49.411 E21.15322
G1 X40.189 Y51.989 E22.26521
G1 X38.124 Y52.009 E22.89523
G1 X37.591 Y51.476 E23.12490
G1 Z1.300 F7800.000
G1 X39.804 Y51.604 F7800.000
G1 X37.996 Y51.604 E23.72734 F719.854
G1 X37.996 Y49.796 E24.32979
G1 X39.804 Y49.796 E24.93223
G1 X39.804 Y51.484 E25.49469
G1 X41.414 Y53.214 F7800.000
G1 X36.386 Y53.214 E27.17043 F719.854
G1 X36.386 Y48.186 E28.84617
G1 X41.414 Y48.186 E30.52191
G1 X41.414 Y53.094 E32.15767
G1 X43.025 Y54.825 F7800.000
G1 X34.775 Y54.825 E34.90671 F719.854
G1 X34.775 Y46.575 E37.65574
G1 X43.025 Y46.575 E40.40478
G1 X43.025 Y54.705 E43.11383
G1 X42.332 Y54.425 F7800.000
G1 Z1.950 F7800.000
G1 X39.804 Y51.604 F7800.000
G1 X37.996 Y51.604 E43.71627 F719.854
G1 X37.996 Y49.796 E44.31872
G1 X39.804 Y49.796 E44.92116
G1 X39.804 Y51.484 E45.48362
G1 X41.414 Y53.214 F7800.000
G1 X36.386 Y53.214 E47.15936 F719.854
G1 X36.386 Y48.186 E48.83510
G1 X41.414 Y48.186 E50.51084
G1 X41.414 Y53.094 E52.14660
G1 X43.025 Y54.825 F7800.000
G1 X34.775 Y54.825 E54.89563 F719.854
G1 X34.775 Y46.575 E57.64467
G1 X43.025 Y46.575 E60.39371
G1 X43.025 Y54.705 E63.10276
G1 X42.332 Y54.425 F7800.000
M106 S255
G1 Z2.600 F7800.000
G1 X39.804 Y51.604 F7800.000
G1 X37.996 Y51.604 E63.70520 F719.854
G1 X37.996 Y49.796 E64.30765
G1 X39.804 Y49.796 E64.91009
G1 X39.804 Y51.484 E65.47255
G1 X41.414 Y53.214 F7800.000
G1 X36.386 Y53.214 E67.14829 F719.854
G1 X36.386 Y48.186 E68.82403
G1 X41.414 Y48.186 E70.49977
G1 X41.414 Y53.094 E72.13553
G1 X43.025 Y54.825 F7800.000
G1 X34.775 Y54.825 E74.88456 F719.854
G1 X34.775 Y46.575 E77.63360
G1 X43.025 Y46.575 E80.38264
G1 X43.025 Y54.705 E83.09169
G1 X42.332 Y54.425 F7800.000
G1 Z3.250 F7800.000
G1 X39.804 Y51.604 F7800.000
G1 X37.996 Y51.604 E83.69413 F719.854
G1 X37.996 Y49.796 E84.29658
G1 X39.804 Y49.796 E84.89902
G1 X39.804 Y51.484 E85.46148
G1 X41.414 Y53.214 F7800.000
G1 X36.386 Y53.214 E87.13722 F719.854
G1 X36.386 Y48.186 E88.81296
G1 X41.414 Y48.186 E90.48870
G1 X41.414 Y53.094 E92.12446
G1 X43.025 Y54.825 F7800.000
G1 X34.775 Y54.825 E94.87349 F719.854
G1 X34.775 Y46.575 E97.62253
G1 X43.025 Y46.575 E100.37157
G1 X43.025 Y54.705 E103.08062
G1 X42.332 Y54.425 F7800.000
G1 Z3.900 F7800.000
G1 X39.804 Y51.604 F7800.000
G1 X37.996 Y51.604 E103.68306 F719.854
G1 X37.996 Y49.796 E104.28551
G1 X39.804 Y49.796 E104.88795
G1 X39.804 Y51.484 E105.45041
G1 X41.414 Y53.214 F7800.000
G1 X36.386 Y53.214 E107.12615 F719.854
G1 X36.386 Y48.186 E108.80189
G1 X41.414 Y48.186 E110.47763
G1 X41.414 Y53.094 E112.11338
G1 X43.025 Y54.825 F7800.000
G1 X34.775 Y54.825 E114.86242 F719.854
G1 X34.775 Y46.575 E117.61146
G1 X43.025 Y46.575 E120.36049
G1 X43.025 Y54.705 E123.06954
G1 X42.332 Y54.425 F7800.000
G1 Z4.550 F7800.000
G1 X39.804 Y51.604 F7800.000
G1 X37.996 Y51.604 E123.67199 F719.854
G1 X37.996 Y49.796 E124.27443
G1 X39.804 Y49.796 E124.87688
G1 X39.804 Y51.484 E125.43934
G1 X41.414 Y53.214 F7800.000
G1 X36.386 Y53.214 E127.11508 F719.854
G1 X36.386 Y48.186 E128.79082
G1 X41.414 Y48.186 E130.46656
G1 X41.414 Y53.094 E132.10231
G1 X43.025 Y54.825 F7800.000
G1 X34.775 Y54.825 E134.85135 F719.854
G1 X34.775 Y46.575 E137.60039
G1 X43.025 Y46.575 E140.34942
G1 X43.025 Y54.705 E143.05847
G1 X42.332 Y54.425 F7800.000
G1 Z5.200 F7800.000
G1 X39.804 Y51.604 F7800.000
G1 X37.996 Y51.604 E143.66092 F719.854
G1 X37.996 Y49.796 E144.26336
G1 X39.804 Y49.796 E144.86581
G1 X39.804 Y51.484 E145.42827
G1 X41.414 Y53.214 F7800.000
G1 X36.386 Y53.214 E147.10401 F719.854
G1 X36.386 Y48.186 E148.77975
G1 X41.414 Y48.186 E150.45549
G1 X41.414 Y53.094 E152.09124
G1 X43.025 Y54.825 F7800.000
G1 X34.775 Y54.825 E154.84028 F719.854
G1 X34.775 Y46.575 E157.58932
G1 X43.025 Y46.575 E160.33835
G1 X43.025 Y54.705 E163.04740
G1 X42.332 Y54.425 F7800.000
G1 Z5.850 F7800.000
G1 X39.804 Y51.604 F7800.000
G1 X37.996 Y51.604 E163.64985 F719.854
G1 X37.996 Y49.796 E164.25229
G1 X39.804 Y49.796 E164.85474
G1 X39.804 Y51.484 E165.41720
G1 X41.414 Y53.214 F7800.000
G1 X36.386 Y53.214 E167.09294 F719.854
G1 X36.386 Y48.186 E168.76868
G1 X41.414 Y48.186 E170.44442
G1 X41.414 Y53.094 E172.08017
G1 X43.025 Y54.825 F7800.000
G1 X34.775 Y54.825 E174.82921 F719.854
G1 X34.775 Y46.575 E177.57824
G1 X43.025 Y46.575 E180.32728
G1 X43.025 Y54.705 E183.03633
G1 X42.332 Y54.425 F7800.000
G1 Z6.500 F7800.000
G1 X39.804 Y51.604 F7800.000
G1 X37.996 Y51.604 E183.63878 F719.854
G1 X37.996 Y49.796 E184.24122
G1 X39.804 Y49.796 E184.84367
G1 X39.804 Y51.484 E185.40613
G1 X41.414 Y53.214 F7800.000
G1 X36.386 Y53.214 E187.08187 F719.854
G1 X36.386 Y48.186 E188.75761
G1 X41.414 Y48.186 E190.43335
G1 X41.414 Y53.094 E192.06910
G1 X43.025 Y54.825 F7800.000
G1 X34.775 Y54.825 E194.81814 F719.854
G1 X34.775 Y46.575 E197.56717
G1 X43.025 Y46.575 E200.31621
G1 X43.025 Y54.705 E203.02526
G1 X42.332 Y54.425 F7800.000
G1 Z7.150 F7800.000
G1 X39.804 Y51.604 F7800.000
G1 X37.996 Y51.604 E203.62771 F719.854
G1 X37.996 Y49.796 E204.23015
G1 X39.804 Y49.796 E204.83260
G1 X39.804 Y51.484 E205.39505
G1 X41.414 Y53.214 F7800.000
G1 X36.386 Y53.214 E207.07079 F719.854
G1 X36.386 Y48.186 E208.74654
G1 X41.414 Y48.186 E210.42228
G1 X41.414 Y53.094 E212.05803
G1 X43.025 Y54.825 F7800.000
G1 X34.775 Y54.825 E214.80707 F719.854
G1 X34.775 Y46.575 E217.55610
G1 X43.025 Y46.575 E220.30514
G1 X43.025 Y54.705 E223.01419
G1 X42.332 Y54.425 F7800.000
G1 Z7.800 F7800.000
G1 X39.804 Y51.604 F7800.000
G1 X37.996 Y51.604 E223.61663 F719.854
G1 X37.996 Y49.796 E224.21908
G1 X39.804 Y49.796 E224.82152
G1 X39.804 Y51.484 E225.38398
G1 X41.414 Y53.214 F7800.000
G1 X36.386 Y53.214 E227.05972 F719.854
G1 X36.386 Y48.186 E228.73546
G1 X41.414 Y48.186 E230.41120
G1 X41.414 Y53.094 E232.04696
G1 X43.025 Y54.825 F7800.000
G1 X34.775 Y54.825 E234.79600 F719.854
G1 X34.775 Y46.575 E237.54503
G1 X43.025 Y46.575 E240.29407
G1 X43.025 Y54.705 E243.00312
G1 X42.332 Y54.425 F7800.000
G1 Z8.450 F7800.000
G1 X39.804 Y51.604 F7800.000
G1 X37.996 Y51.604 E243.60556 F719.854
G1 X37.996 Y49.796 E244.20801
G1 X39.804 Y49.796 E244.81045
G1 X39.804 Y51.484 E245.37291
G1 X41.414 Y53.214 F7800.000
G1 X36.386 Y53.214 E247.04865 F719.854
G1 X36.386 Y48.186 E248.72439
G1 X41.414 Y48.186 E250.40013
G1 X41.414 Y53.094 E252.03589
G1 X43.025 Y54.825 F7800.000
G1 X34.775 Y54.825 E254.78492 F719.854
G1 X34.775 Y46.575 E257.53396
G1 X43.025 Y46.575 E260.28300
G1 X43.025 Y54.705 E262.99205
G1 X42.332 Y54.425 F7800.000
G1 Z9.100 F7800.000
G1 X39.804 Y51.604 F7800.000
G1 X37.996 Y51.604 E263.59449 F719.854
G1 X37.996 Y49.796 E264.19694
G1 X39.804 Y49.796 E264.79938
G1 X39.804 Y51.484 E265.36184
G1 X41.414 Y53.214 F7800.000
G1 X36.386 Y53.214 E267.03758 F719.854
G1 X36.386 Y48.186 E268.71332
G1 X41.414 Y48.186 E270.38906
G1 X41.414 Y53.094 E272.02482
G1 X43.025 Y54.825 F7800.000
G1 X34.775 Y54.825 E274.77385 F719.854
G1 X34.775 Y46.575 E277.52289
G1 X43.025 Y46.575 E280.27193
G1 X43.025 Y54.705 E282.98098
G1 X42.332 Y54.425 F7800.000
G1 Z9.750 F7800.000
G1 X39.804 Y51.604 F7800.000
G1 X37.996 Y51.604 E283.58342 F719.854
G1 X37.996 Y49.796 E284.18587
G1 X39.804 Y49.796 E284.78831
G1 X39.804 Y51.484 E285.35077
G1 X41.414 Y53.214 F7800.000
G1 X36.386 Y53.214 E287.02651 F719.854
G1 X36.386 Y48.186 E288.70225
G1 X41.414 Y48.186 E290.37799
G1 X41.414 Y53.094 E292.01375
G1 X43.025 Y54.825 F7800.000
G1 X34.775 Y54.825 E294.76278 F719.854
G1 X34.775 Y46.575 E297.51182
G1 X43.025 Y46.575 E300.26086
G1 X43.025 Y54.705 E302.96991
G1 X42.332 Y54.425 F7800.000
G1 Z10.400 F7800.000
G1 X39.804 Y51.604 F7800.000
G1 X37.996 Y51.604 E303.57235 F719.854
G1 X37.996 Y49.796 E304.17480
G1 X39.804 Y49.796 E304.77724
G1 X39.804 Y51.484 E305.33970
G1 X41.414 Y53.214 F7800.000
G1 X36.386 Y53.214 E307.01544 F719.854
G1 X36.386 Y48.186 E308.69118
G1 X41.414 Y48.186 E310.36692
G1 X41.414 Y53.094 E312.00267
G1 X43.025 Y54.825 F7800.000
G1 X34.775 Y54.825 E314.75171 F719.854
G1 X34.775 Y46.575 E317.50075
G1 X43.025 Y46.575 E320.24978
G1 X43.025 Y54.705 E322.95884
G1 X42.332 Y54.425 F7800.000
G1 Z11.050 F7800.000
G1 X39.804 Y51.604 F7800.000
G1 X37.996 Y51.604 E323.56128 F719.854
G1 X37.996 Y49.796 E324.16372
G1 X39.804 Y49.796 E324.76617
G1 X39.804 Y51.484 E325.32863
G1 X41.414 Y53.214 F7800.000
G1 X36.386 Y53.214 E327.00437 F719.854
G1 X36.386 Y48.186 E328.68011
G1 X41.414 Y48.186 E330.35585
G1 X41.414 Y53.094 E331.99160
G1 X43.025 Y54.825 F7800.000
G1 X34.775 Y54.825 E334.74064 F719.854
G1 X34.775 Y46.575 E337.48968
G1 X43.025 Y46.575 E340.23871
G1 X43.025 Y54.705 E342.94776
G1 X42.332 Y54.425 F7800.000
G1 Z11.700 F7800.000
G1 X39.804 Y51.604 F7800.000
G1 X37.996 Y51.604 E343.55021 F719.854
G1 X37.996 Y49.796 E344.15265
G1 X39.804 Y49.796 E344.75510
G1 X39.804 Y51.484 E345.31756
G1 X41.414 Y53.214 F7800.000
G1 X36.386 Y53.214 E346.99330 F719.854
G1 X36.386 Y48.186 E348.66904
G1 X41.414 Y48.186 E350.34478
G1 X41.414 Y53.094 E351.98053
G1 X43.025 Y54.825 F7800.000
G1 X34.775 Y54.825 E354.72957 F719.854
G1 X34.775 Y46.575 E357.47861
G1 X43.025 Y46.575 E360.22764
G1 X43.025 Y54.705 E362.93669
G1 X42.332 Y54.425 F7800.000
G1 Z12.350 F7800.000
G1 X39.804 Y51.604 F7800.000
G1 X37.996 Y51.604 E363.53914 F719.854
G1 X37.996 Y49.796 E364.14158
G1 X39.804 Y49.796 E364.74403
G1 X39.804 Y51.484 E365.30649
G1 X41.414 Y53.214 F7800.000
G1 X36.386 Y53.214 E366.98223 F719.854
G1 X36.386 Y48.186 E368.65797
G1 X41.414 Y48.186 E370.33371
G1 X41.414 Y53.094 E371.96946
G1 X43.025 Y54.825 F7800.000
G1 X34.775 Y54.825 E374.71850 F719.854
G1 X34.775 Y46.575 E377.46754
G1 X43.025 Y46.575 E380.21657
G1 X43.025 Y54.705 E382.92562
G1 X42.332 Y54.425 F7800.000
G1 Z13.000 F7800.000
G1 X39.804 Y51.604 F7800.000
G1 X37.996 Y51.604 E383.52807 F719.854
G1 X37.996 Y49.796 E384.13051
G1 X39.804 Y49.796 E384.73296
G1 X39.804 Y51.484 E385.29542
G1 X41.414 Y53.214 F7800.000
G1 X36.386 Y53.214 E386.97116 F719.854
G1 X36.386 Y48.186 E388.64690
G1 X41.414 Y48.186 E390.32264
G1 X41.414 Y53.094 E391.95839
G1 X43.025 Y54.825 F7800.000
G1 X34.775 Y54.825 E394.70743 F719.854
G1 X34.775 Y46.575 E397.45646
G1 X43.025 Y46.575 E400.20550
G1 X43.025 Y54.705 E402.91455
G1 X42.332 Y54.425 F7800.000
G1 Z13.650 F7800.000
G1 X39.804 Y51.604 F7800.000
G1 X37.996 Y51.604 E403.51700 F719.854
G1 X37.996 Y49.796 E404.11944
G1 X39.804 Y49.796 E404.72189
G1 X39.804 Y51.484 E405.28434
G1 X41.414 Y53.214 F7800.000
G1 X36.386 Y53.214 E406.96008 F719.854
G1 X36.386 Y48.186 E408.63583
G1 X41.414 Y48.186 E410.31157
G1 X41.414 Y53.094 E411.94732
G1 X43.025 Y54.825 F7800.000
G1 X34.775 Y54.825 E414.69636 F719.854
G1 X34.775 Y46.575 E417.44539
G1 X43.025 Y46.575 E420.19443
G1 X43.025 Y54.705 E422.90348
G1 X42.332 Y54.425 F7800.000
G1 Z14.300 F7800.000
G1 X39.804 Y51.604 F7800.000
G1 X37.996 Y51.604 E423.50593 F719.854
G1 X37.996 Y49.796 E424.10837
G1 X39.804 Y49.796 E424.71081
G1 X39.804 Y51.484 E425.27327
G1 X41.414 Y53.214 F7800.000
G1 X36.386 Y53.214 E426.94901 F719.854
G1 X36.386 Y48.186 E428.62475
G1 X41.414 Y48.186 E430.30049
G1 X41.414 Y53.094 E431.93625
G1 X43.025 Y54.825 F7800.000
G1 X34.775 Y54.825 E434.68529 F719.854
G1 X34.775 Y46.575 E437.43432
G1 X43.025 Y46.575 E440.18336
G1 X43.025 Y54.705 E442.89241
G1 X42.332 Y54.425 F7800.000
G1 Z14.950 F7800.000
G1 X39.804 Y51.604 F7800.000
G1 X37.996 Y51.604 E443.49485 F719.854
G1 X37.996 Y49.796 E444.09730
G1 X39.804 Y49.796 E444.69974
G1 X39.804 Y51.484 E445.26220
G1 X41.414 Y53.214 F7800.000
G1 X36.386 Y53.214 E446.93794 F719.854
G1 X36.386 Y48.186 E448.61368
G1 X41.414 Y48.186 E450.28942
G1 X41.414 Y53.094 E451.92518
G1 X43.025 Y54.825 F7800.000
G1 X34.775 Y54.825 E454.67421 F719.854
G1 X34.775 Y46.575 E457.42325
G1 X43.025 Y46.575 E460.17229
G1 X43.025 Y54.705 E462.88134
G1 X42.332 Y54.425 F7800.000
G1 Z15.600 F7800.000
G1 X39.804 Y51.604 F7800.000
G1 X37.996 Y51.604 E463.48378 F719.854
G1 X37.996 Y49.796 E464.08623
G1 X39.804 Y49.796 E464.68867
G1 X39.804 Y51.484 E465.25113
G1 X41.414 Y53.214 F7800.000
G1 X36.386 Y53.214 E466.92687 F719.854
G1 X36.386 Y48.186 E468.60261
G1 X41.414 Y48.186 E470.27835
G1 X41.414 Y53.094 E471.91411
G1 X43.025 Y54.825 F7800.000
G1 X34.775 Y54.825 E474.66314 F719.854
G1 X34.775 Y46.575 E477.41218
G1 X43.025 Y46.575 E480.16122
G1 X43.025 Y54.705 E482.87027
G1 X42.332 Y54.425 F7800.000
G1 Z16.250 F7800.000
G1 X39.804 Y51.604 F7800.000
G1 X37.996 Y51.604 E483.47271 F719.854
G1 X37.996 Y49.796 E484.07516
G1 X39.804 Y49.796 E484.67760
G1 X39.804 Y51.484 E485.24006
G1 X41.414 Y53.214 F7800.000
G1 X36.386 Y53.214 E486.91580 F719.854
G1 X36.386 Y48.186 E488.59154
G1 X41.414 Y48.186 E490.26728
G1 X41.414 Y53.094 E491.90304
G1 X43.025 Y54.825 F7800.000
G1 X34.775 Y54.825 E494.65207 F719.854
G1 X34.775 Y46.575 E497.40111
G1 X43.025 Y46.575 E500.15015
G1 X43.025 Y54.705 E502.85920
G1 X42.332 Y54.425 F7800.000
G1 Z16.900 F7800.000
G1 X39.804 Y51.604 F7800.000
G1 X37.996 Y51.604 E503.46164 F719.854
G1 X37.996 Y49.796 E504.06409
G1 X39.804 Y49.796 E504.66653
G1 X39.804 Y51.484 E505.22899
G1 X41.414 Y53.214 F7800.000
G1 X36.386 Y53.214 E506.90473 F719.854
G1 X36.386 Y48.186 E508.58047
G1 X41.414 Y48.186 E510.25621
G1 X41.414 Y53.094 E511.89197
G1 X43.025 Y54.825 F7800.000
G1 X34.775 Y54.825 E514.64100 F719.854
G1 X34.775 Y46.575 E517.39004
G1 X43.025 Y46.575 E520.13907
G1 X43.025 Y54.705 E522.84813
G1 X42.332 Y54.425 F7800.000
G1 Z17.550 F7800.000
G1 X39.804 Y51.604 F7800.000
G1 X37.996 Y51.604 E523.45057 F719.854
G1 X37.996 Y49.796 E524.05302
G1 X39.804 Y49.796 E524.65546
G1 X39.804 Y51.484 E525.21792
G1 X41.414 Y53.214 F7800.000
G1 X36.386 Y53.214 E526.89366 F719.854
G1 X36.386 Y48.186 E528.56940
G1 X41.414 Y48.186 E530.24514
G1 X41.414 Y53.094 E531.88089
G1 X43.025 Y54.825 F7800.000
G1 X34.775 Y54.825 E534.62993 F719.854
G1 X34.775 Y46.575 E537.37897
G1 X43.025 Y46.575 E540.12800
G1 X43.025 Y54.705 E542.83705
G1 X42.332 Y54.425 F7800.000
G1 Z18.200 F7800.000
G1 X39.804 Y51.604 F7800.000
G1 X37.996 Y51.604 E543.43950 F719.854
G1 X37.996 Y49.796 E544.04194
G1 X39.804 Y49.796 E544.64439
G1 X39.804 Y51.484 E545.20685
G1 X41.414 Y53.214 F7800.000
G1 X36.386 Y53.214 E546.88259 F719.854
G1 X36.386 Y48.186 E548.55833
G1 X41.414 Y48.186 E550.23407
G1 X41.414 Y53.094 E551.86982
G1 X43.025 Y54.825 F7800.000
